X: 36727
T: Sheep In The Boat, The
R: jig
M: 6/8
K: Edorian
|:B2F GFE|~F3 def|edB BAF|AFE FED|
B2F GFE|~F3 def|edB BAF|AFE E2A:|
|:B2e ede|faf def|edB BAF|AFE FED|
[1 B2e ede|faf def|edB BAF|AFE E2A:|
[2 BEF GFE|~F3 def|edB BAF|AFE E2A||

